X: 24780
T: Maggie And Jock
R: barndance
M: 4/4
K: Dmajor
dBdB g2 g2|f2 e^d e3 A|c2 c2 f2 f2|e2 d^c d3 B|
d2 d2 g2 g2|f2 e^d e3 c|f2 fe dcBA|G2 G2 G2:|
dBGB dBGE|FdFd F4|ed^cd fd=cA|G2 G2 G2 Bc|
dBGB dBGE|FdFd F4|edc>d fd=cA|G2 G2 G2:|
d2 d2 g2 g2|f2 e^d e3 A|c2 c2 f2 f2|e2 d>^c d3 B|
d2 d2 g2 g2|f2 e^d e3 c|f2 fe dcBA|G2 G2 G3:|
Adfd Bdgd|Adfd A4|Aege c4|dfaf d4|
Adfd Bdgd|Adfd A4|Aeae cABc|d2 f2 d2:|

